assets/Derelict house/Flat/derelict_house_flat.svg

<svg width="32" height="32" viewBox="0 0 32 32" fill="none" xmlns="http://www.w3.org/2000/svg">
<path d="M5 29H28V13.9624L16.5314 5L10 10.0763V6.54C10 6.24 9.75879 6 9.46734 6H8.01005V5.54C8.01005 5.24 7.75879 5 7.46734 5H6.54271C6.24121 5 6 5.24 6 5.54V12.46C6 12.6756 6.12453 12.8601 6.30649 12.947L5 13.9624V29Z" fill="#F3C07B"/>
<path d="M8 20.5336C8 18.5805 9.56775 17 11.505 17C13.4422 17 15.0099 18.5805 15 20.5336V28.6074C15 28.8289 14.8302 29 14.6105 29H13.9115H9.07845H8.38944C8.16976 29 8 28.8289 8 28.6074V20.5336ZM20 19.5C20 18.12 21.1178 17 22.495 17C23.8723 17 24.99 18.12 25 19.5V23H24.002H21.008H20V19.5Z" fill="#212121"/>
<path d="M26.5629 20.3441L18.8533 21.9891C18.556 22.0485 18.2686 21.8602 18.2091 21.5629L18.011 20.6513C17.9515 20.354 18.1398 20.0666 18.4371 20.0071L26.1467 18.3622C26.444 18.3027 26.7314 18.491 26.7909 18.7883L26.989 19.6999C27.0485 19.9972 26.8602 20.2846 26.5629 20.3441ZM7 22.5C7 22.2239 7.22386 22 7.5 22H15.5C15.7761 22 16 22.2239 16 22.5V23.5C16 23.7761 15.7761 24 15.5 24H7.5C7.22386 24 7 23.7761 7 23.5V22.5ZM7.50336 25L15.4966 25.0099C15.7785 25.0099 16 25.2277 16 25.505C16 25.7822 15.7785 26 15.4966 26L7.50336 25.9901C7.22148 25.9901 7 25.7723 7 25.495C7 25.2178 7.22148 25 7.50336 25Z" fill="#7D4533"/>
<path d="M29.76 15.6378C29.91 15.4678 29.98 15.2478 29.98 15.0278C29.98 14.7478 29.85 14.4678 29.62 14.2878L23.4 9.29784C23.22 9.14784 22.98 9.09784 22.75 9.15784C22.61 9.19784 22.45 9.20784 22.35 9.12784L20.81 7.88784C20.68 7.78784 20.68 7.54784 20.7 7.36784C20.72 7.22784 20.66 7.09784 20.55 7.00784L17.1593 4.28748C17.095 4.22415 17.0232 4.17141 16.9464 4.12952C16.5482 3.89636 16.0162 3.98249 15.713 4.35164L3.36 14.2478C3.12 14.4378 3 14.7178 3 14.9978C3 15.2178 3.07 15.4378 3.21 15.6078C3.54 16.0178 4.16 16.0778 4.57 15.7478L7.13 13.6978C7.3 13.5578 7.36 13.3378 7.32 13.1278V13.0878C7.32 12.9479 7.39 12.7878 7.52 12.6878L9.6 11.0279C9.71 10.9378 9.9 10.9578 10.06 11.0079C10.25 11.0679 10.47 11.0378 10.63 10.9078L16.471 6.23325L28.4 15.7878C28.81 16.1178 29.43 16.0578 29.76 15.6378Z" fill="#F8312F"/>
</svg>

<svg xmlns="http://www.w3.org/2000/svg" width="32" height="32" fill="none"><path fill="#F3C07B" d="M5 29h23V13.962L16.531 5 10 10.076V6.54c0-.3-.241-.54-.533-.54H8.01v-.46c0-.3-.251-.54-.543-.54h-.924A.54.54 0 0 0 6 5.54v6.92c0 .216.125.4.306.487L5 13.962V29Z"/><path fill="#212121" d="M8 20.534C8 18.58 9.568 17 11.505 17A3.503 3.503 0 0 1 15 20.534v8.073c0 .222-.17.393-.39.393H8.39A.385.385 0 0 1 8 28.607v-8.073ZM20 19.5c0-1.38 1.118-2.5 2.495-2.5A2.513 2.513 0 0 1 25 19.5V23h-5v-3.5Z"/><path fill="#7D4533" d="m26.563 20.344-7.71 1.645a.544.544 0 0 1-.644-.426l-.198-.912a.544.544 0 0 1 .426-.644l7.71-1.645a.544.544 0 0 1 .644.426l.198.912a.544.544 0 0 1-.426.644ZM7 22.5a.5.5 0 0 1 .5-.5h8a.5.5 0 0 1 .5.5v1a.5.5 0 0 1-.5.5h-8a.5.5 0 0 1-.5-.5v-1Zm.503 2.5 7.994.01a.494.494 0 1 1 0 .99l-7.994-.01a.494.494 0 1 1 0-.99Z"/><path fill="#F8312F" d="M29.76 15.638a.948.948 0 0 0-.14-1.35l-6.22-4.99a.723.723 0 0 0-.65-.14c-.14.04-.3.05-.4-.03l-1.54-1.24c-.13-.1-.13-.34-.11-.52a.39.39 0 0 0-.15-.36l-3.39-2.72a.954.954 0 0 0-.214-.158.973.973 0 0 0-1.233.222L3.36 14.248c-.24.19-.36.47-.36.75 0 .22.07.44.21.61.33.41.95.47 1.36.14l2.56-2.05c.17-.14.23-.36.19-.57v-.04c0-.14.07-.3.2-.4l2.08-1.66c.11-.09.3-.07.46-.02.19.06.41.03.57-.1l5.841-4.675L28.4 15.788c.41.33 1.03.27 1.36-.15Z"/></svg>
